!!!OTL: Ostergesang
!!!ARE: Europa, Mitteleuropa, Deutschland
!!!SCT: A0565
!!!YEM: Copyright 1995, estate of Helmut Schaffrath.
**kern
*ICvox
*Ivox
*M3/2
*k[]
*C:
{2cc
=1
1cc
2cc
=2
2cc
2ee
2dd
=3
2cc
2b
2cc
=4
1g}
{2b
=5
1cc
2b
=6
1a
2g
=7
1a
2cc
=8
1b}
{2g
=9
2e
2f
2g
=10
2a
2g
2g
=11
2g
2g
2e
=12
1c}
{2d
=13
2e
2e
2d
=14
1e
2a
=15
2a
2g
2f
=16
1e}
{2d
=17
2c
2c
2d
=18
1e
2a
=19
2a
2g
2f
=20
1e}
==
!!!AGN: Romanze, Ballade, Lied, religioeses Lied
!! Muenchner Gsgb 1586 fol. 108
!!!ONB: ESAC (Essen Associative Code) Database: ALTDEU
!!!AMT: simple triple
!!!AIN: vox
!!!EED: Helmut Schaffrath
!!!EEV: 1.0
*-
